X: 173
T:New London Hornpipe. JC.172
M:C|
L:1/8
Q:180
S:John Clare,Poet,Helpstone (1793-1864)
R:Hornpipe
O:England
A:Northamptonshire
N:
Z:vmp.P. Headford
K:G
"Key D in MS"dcBA G2ef|g2ef f2dB|cecA BdBG|cAB2 GFED|!
EGFA G2AB|c2BA B2ed|cBAG BAGF|G2G2G2z2:|!
|:g2bg e2e2|abag f2ed|gfed edcB|cBAG F2ED|!
EGFA G2AB|c2BAB2ed|cBAG BAGF|G2G2G2z2:|]
